src/images/icons/comp.svg

<svg xmlns="http://www.w3.org/2000/svg" width="45" height="30"><path d="M10.9 15.6c-1.9 1.5-4 3-6 4.6-1 .8-2.1 1.4-3.4.7C.2 20.2 0 19.1 0 17.8V3.3v-1C.3.3 2.3-.6 4 .4c.7.4 1.3 1 2 1.5 1.7 1.3 3.3 2.6 5 3.9 1.9-.7 9.4-.7 11.1 0 1.6-1.2 3.2-2.4 4.7-3.7.7-.5 1.3-1.1 2.1-1.6 1.9-1.3 4-.2 4.2 2v16.1c-.2 2.1-2.3 3.1-4.1 1.9-.8-.5-1.4-1.1-2.2-1.6-1.4-1.1-2.8-2.1-4.2-3.2-.4-.3-.7-.4-1.2-.2s-1 .2-1.5.2h-6.5c-.7.2-1.5 0-2.5-.1zm20.9-5V3c0-.6-.1-1.2-.7-1.5-.7-.3-1.2 0-1.6.4-2.1 1.6-4.1 3.2-6.2 4.8-.6.3-.8.7-.8 1.3v5.3c0 .7.3 1.1.8 1.5 1.8 1.3 3.6 2.7 5.3 4.1.3.2.6.5.9.7 1.1.7 2.1.3 2.2-1v-.9c.1-2.4.1-4.8.1-7.1zm-30.5 0v7.5c0 .7.1 1.3.8 1.6.7.3 1.2 0 1.6-.4 2.1-1.6 4.1-3.1 6.2-4.7.5-.4.7-.8.7-1.4v-5c0-.8-.2-1.3-.8-1.7-2-1.5-3.8-3-5.7-4.4-.3-.2-.5-.4-.8-.6-.9-.4-1.7 0-1.9 1-.1.3 0 .7 0 1-.1 2.4-.1 4.7-.1 7.1zm15.4-3.9H13c-.6 0-1 .2-1 .9v6.1c0 .7.3.9 1 .9h7.2c.9 0 1-.1 1-1V7.7c0-.8-.2-1-1-1-1.2-.1-2.4 0-3.5 0z" fill="#5ab947"/></svg>

<!-- Generator: Adobe Illustrator 21.0.2, SVG Export Plug-In  -->
<svg version="1.1"
	 xmlns="http://www.w3.org/2000/svg" xmlns:xlink="http://www.w3.org/1999/xlink" xmlns:a="http://ns.adobe.com/AdobeSVGViewerExtensions/3.0/"
	 x="0px" y="0px" width="33.1px" height="21.2px" viewBox="0 0 33.1 21.2" style="enable-background:new 0 0 33.1 21.2;"
	 xml:space="preserve">
<style type="text/css">
	.st0{fill:#5AB947;}
</style>
<defs>
</defs>
<path class="st0" d="M10.9,15.6c-1.9,1.5-4,3-6,4.6c-1,0.8-2.1,1.4-3.4,0.7C0.2,20.2,0,19.1,0,17.8C0,13,0,8.2,0,3.3
	c0-0.3,0-0.7,0-1c0.3-2,2.3-2.9,4-1.9c0.7,0.4,1.3,1,2,1.5c1.7,1.3,3.3,2.6,5,3.9c1.9-0.7,9.4-0.7,11.1,0c1.6-1.2,3.2-2.4,4.7-3.7
	c0.7-0.5,1.3-1.1,2.1-1.6c1.9-1.3,4-0.2,4.2,2c0,0.3,0,0.6,0,0.9c0,4.7,0,9.5,0,14.2c0,0.3,0,0.7,0,1c-0.2,2.1-2.3,3.1-4.1,1.9
	c-0.8-0.5-1.4-1.1-2.2-1.6c-1.4-1.1-2.8-2.1-4.2-3.2c-0.4-0.3-0.7-0.4-1.2-0.2c-0.5,0.2-1,0.2-1.5,0.2c-2.2,0-4.3,0-6.5,0
	C12.7,15.9,11.9,15.7,10.9,15.6z M31.8,10.6c0-2.5,0-5.1,0-7.6c0-0.6-0.1-1.2-0.7-1.5c-0.7-0.3-1.2,0-1.6,0.4
	c-2.1,1.6-4.1,3.2-6.2,4.8C22.7,7,22.5,7.4,22.5,8c0,1.8,0,3.5,0,5.3c0,0.7,0.3,1.1,0.8,1.5c1.8,1.3,3.6,2.7,5.3,4.1
	c0.3,0.2,0.6,0.5,0.9,0.7c1.1,0.7,2.1,0.3,2.2-1c0-0.3,0-0.6,0-0.9C31.8,15.3,31.8,12.9,31.8,10.6z M1.3,10.6c0,1.8,0,3.6,0,5.4
	c0,0.7,0,1.4,0,2.1c0,0.7,0.1,1.3,0.8,1.6c0.7,0.3,1.2,0,1.6-0.4c2.1-1.6,4.1-3.1,6.2-4.7c0.5-0.4,0.7-0.8,0.7-1.4c0-1.7,0-3.4,0-5
	c0-0.8-0.2-1.3-0.8-1.7C7.8,5,6,3.5,4.1,2.1C3.8,1.9,3.6,1.7,3.3,1.5C2.4,1.1,1.6,1.5,1.4,2.5c-0.1,0.3,0,0.7,0,1
	C1.3,5.9,1.3,8.2,1.3,10.6z M16.7,6.7C16.7,6.7,16.7,6.7,16.7,6.7c-1.2,0-2.5,0-3.7,0c-0.6,0-1,0.2-1,0.9c0,2,0,4,0,6.1
	c0,0.7,0.3,0.9,1,0.9c2.4,0,4.8,0,7.2,0c0.9,0,1-0.1,1-1c0-2,0-4,0-5.9c0-0.8-0.2-1-1-1C19,6.6,17.8,6.7,16.7,6.7z"/>
</svg>
